X: 25990
T: Mayn Ershtn Tants Bay Dir
R: waltz
M: 3/4
K: Bminor
|:F2|G4 F2|B4 c2|d6-|d2 B2 c2|d2 B c3|d2 e3 d|c6-|c4 F2|
G F- F4-|F2 c3 d|e6-|e2 c2 d2|e2 c d3|e f3 g2|f6-|f4 F2|
G3 F3|B3 c3|d6-|d2 B2 c2|d2 B2 d2|e2 d2 e2|f6-|f2 g f3|
e3 d c2|c2 f2 e2|d2 c2 B2|B2 e2 d2|c2 d2 c2|c d3 c2|B6-|B4:|
|:fd|f6-|f2 f2 d2|f6-|f2 g3 e|g6-|g2 g2 e2|g6-|g2 c2 d2|
e3 c d2|e d3 e2|f6|f2 e2 d2|c4 g2|f c3 d2|B6-|B4:|

